data/styles/clear/style-clear/symbols/florist-m.svg

<svg height="24" viewBox="0 0 24 24" width="24"><g fill="none" fill-rule="evenodd"><circle cx="12" cy="12" fill="#fff" opacity=".6" r="12"/><circle cx="12" cy="12" fill="#8c5f93" r="11"/><path d="m13.5398502 15.4459328c-.9190617.944476-1.2535965 2.2585296-1.0072407 3.4736558 1.1826897.252918 2.4635581-.0914611 3.3835289-1.0340705.9181527-.9435428 1.2517784-2.2575964 1.0054226-3.4727226-1.1817806-.2519847-2.4626491.0914611-3.3817108 1.0331373zm-6.46161298-1.0331373c-.24635582 1.2151262.08908808 2.5291798 1.00633168 3.4727226.91906172.9435427 2.2008392 1.2869885 3.3826199 1.0340705.2463558-1.2151262-.0890881-2.5291798-1.0063317-3.4736558-.91906175-.9416762-2.20083923-1.285122-3.38261988-1.0331373zm6.01435448-1.1255317c0-.2305194-.0336353-.4507727-.0845428-.6663596.1127237.1857221.2409015.3667777.3981692.5282346.439077.4507727.9863323.7214229 1.5544961.8156838.4345316.0699958.8490639-.3546451.7781571-.7998181-.0909062-.5842312-.3554433-1.1451305-.7936112-1.5940366-.1590858-.1642567-.3354439-.2949154-.5172563-.4106417.2081752.0494636.4227139.0849281.6454341.0849281.6199803 0 1.1926894-.2053208 1.6590382-.5506332.3563523-.2659839.3563523-.86794733 0-1.13113136-.4663488-.34811221-1.039967-.55156653-1.6599473-.55156653-.2245383 0-.4390769.03453124-.6481612.08492818.1799943-.11572631.3572614-.24638505.51362-.40784192.439077-.45077264.702705-1.01167194.7945203-1.59496988.0672706-.44703954-.3454436-.87168043-.7799753-.79981813-.5681637.09332767-1.11451.36584447-1.553587.81568384-.1590859.16332342-.2863545.3443791-.3999873.53196771.0499984-.21372036.0845428-.43397366.0845428-.66355973 0-.63836126-.2009027-1.22445903-.5390738-1.70322997-.2563555-.36677775-.8427005-.36677775-1.0999651 0-.3381711.47877094-.5372557 1.06580199-.5372557 1.70322997 0 .22958607.0345444.45077265.0836337.66729284-.1127236-.18665534-.2399923-.36677774-.3972601-.52730133-.4390769-.45077265-.98542322-.72142289-1.55358699-.81568384-.43544072-.0718623-.84906395.35371187-.77997524.7970183.09181527.58516449.3545342 1.14606379.79542929 1.59590316.1581768.16332342.33453483.29584871.51816536.41157502-.20908427-.05039694-.42362291-.08492818-.64634311-.08492818-.62179844 0-1.1926894.20532088-1.65994729.55063325-.35635232.26411731-.35635232.8660808 0 1.1301981.46725789.3481122 1.03905792.5524998 1.65994729.5524998.22362926 0 .43907697-.0354645.64816124-.0858615-.18090335.1157263-.35726138.2454518-.51362006.4069087-.43907696.4507726-.70270495 1.0126052-.79361116 1.5968364-.06817965.4470395.34453452.8707472.77815711.7979516.56907284-.0933277 1.11541916-.3639779 1.55358706-.8138173.1590858-.1633234.2881726-.3443791.4008963-.5319677-.0490893.2137203-.0827246.4339737-.0827246.6626264-.0018181.637428.1990846 1.2244591.5372557 1.7022967.2563554.3667778.8427005.3667778 1.099965 0 .3381711-.4778376.5372557-1.0658019.5372557-1.7032299zm-1.0926926-1.6612326c-.8036108 0-1.4544993-.6672928-1.4544993-1.4932427 0-.82501658.6508885-1.49324269 1.4544993-1.49324269.8045199 0 1.4544993.66822611 1.4544993 1.49324269 0 .8259499-.6499794 1.4932427-1.4544993 1.4932427z" fill="#fff"/></g></svg>

<svg width="24" height="24" viewBox="0 0 24 24">
  <g fill="none" fill-rule="evenodd">
    <circle cx="12" cy="12" r="12" fill="#FFF" opacity=".6"/>
    <circle cx="12" cy="12" r="11" fill="#8C5F93"/>
    <path fill="#FFF" d="M13.5398502,15.4459328 C12.6207885,16.3904088 12.2862537,17.7044624 12.5326095,18.9195886 C13.7152992,19.1725066 14.9961676,18.8281275 15.9161384,17.8855181 C16.8342911,16.9419753 17.1679168,15.6279217 16.921561,14.4127955 C15.7397804,14.1608108 14.4589119,14.5042566 13.5398502,15.4459328 L13.5398502,15.4459328 Z M7.07823722,14.4127955 C6.8318814,15.6279217 7.1673253,16.9419753 8.0845689,17.8855181 C9.00363062,18.8290608 10.2854081,19.1725066 11.4671888,18.9195886 C11.7135446,17.7044624 11.3781007,16.3904088 10.4608571,15.4459328 C9.54179535,14.5042566 8.26001787,14.1608108 7.07823722,14.4127955 L7.07823722,14.4127955 Z M13.0925917,13.2872638 C13.0925917,13.0567444 13.0589564,12.8364911 13.0080489,12.6209042 C13.1207726,12.8066263 13.2489504,12.9876819 13.4062181,13.1491388 C13.8452951,13.5999115 14.3925504,13.8705617 14.9607142,13.9648226 C15.3952458,14.0348184 15.8097781,13.6101775 15.7388713,13.1650045 C15.6479651,12.5807733 15.383428,12.019874 14.9452601,11.5709679 C14.7861743,11.4067112 14.6098162,11.2760525 14.4280038,11.1603262 C14.636179,11.2097898 14.8507177,11.2452543 15.0734379,11.2452543 C15.6934182,11.2452543 16.2661273,11.0399335 16.7324761,10.6946211 C17.0888284,10.4286372 17.0888284,9.82667377 16.7324761,9.56348974 C16.2661273,9.21537753 15.6925091,9.01192321 15.0725288,9.01192321 C14.8479905,9.01192321 14.6334519,9.04645445 14.4243676,9.09685139 C14.6043619,8.98112508 14.781629,8.85046634 14.9379876,8.68900947 C15.3770646,8.23823683 15.6406926,7.67733753 15.7325079,7.09403959 C15.7997785,6.64700005 15.3870643,6.22235916 14.9525326,6.29422146 C14.3843689,6.38754913 13.8380226,6.66006593 13.3989456,7.1099053 C13.2398597,7.27322872 13.1125911,7.4542844 12.9989583,7.64187301 C13.0489567,7.42815265 13.0835011,7.20789935 13.0835011,6.97831328 C13.0835011,6.33995202 12.8825984,5.75385425 12.5444273,5.27508331 C12.2880718,4.90830556 11.7017268,4.90830556 11.4444622,5.27508331 C11.1062911,5.75385425 10.9072065,6.3408853 10.9072065,6.97831328 C10.9072065,7.20789935 10.9417509,7.42908593 10.9908402,7.64560612 C10.8781166,7.45895078 10.7508479,7.27882838 10.5935801,7.11830479 C10.1545032,6.66753214 9.60815688,6.3968819 9.03999311,6.30262095 C8.60455239,6.23075865 8.19092916,6.65633282 8.26001787,7.09963925 C8.35183314,7.68480374 8.61455207,8.24570304 9.05544716,8.69554241 C9.21362396,8.85886583 9.38998199,8.99139112 9.57361252,9.10711743 C9.36452825,9.05672049 9.14998961,9.02218925 8.92726941,9.02218925 C8.30547097,9.02218925 7.73458001,9.22751013 7.26732212,9.5728225 C6.9109698,9.83693981 6.9109698,10.4389033 7.26732212,10.7030206 C7.73458001,11.0511328 8.30638004,11.2555204 8.92726941,11.2555204 C9.15089867,11.2555204 9.36634638,11.2200559 9.57543065,11.1696589 C9.3945273,11.2853852 9.21816927,11.4151107 9.06181059,11.5765676 C8.62273363,12.0273402 8.35910564,12.5891728 8.26819943,13.173404 C8.20001978,13.6204435 8.61273395,14.0441512 9.04635654,13.9713556 C9.61542938,13.8780279 10.1617757,13.6073777 10.5999436,13.1575383 C10.7590294,12.9942149 10.8881162,12.8131592 11.0008399,12.6255706 C10.9517506,12.8392909 10.9181153,13.0595443 10.9181153,13.288197 C10.9162972,13.925625 11.1171999,14.5126561 11.455371,14.9904937 C11.7117264,15.3572715 12.2980715,15.3572715 12.555336,14.9904937 C12.8935071,14.5126561 13.0925917,13.9246918 13.0925917,13.2872638 L13.0925917,13.2872638 Z M11.9998991,11.6260312 C11.1962883,11.6260312 10.5453998,10.9587384 10.5453998,10.1327885 C10.5453998,9.30777192 11.1962883,8.63954581 11.9998991,8.63954581 C12.804419,8.63954581 13.4543984,9.30777192 13.4543984,10.1327885 C13.4543984,10.9587384 12.804419,11.6260312 11.9998991,11.6260312 L11.9998991,11.6260312 Z"/>
  </g>
</svg>
